packages/amis-editor-core/src/icons/v3/fixed.svg

<?xml version="1.0" encoding="UTF-8"?>
<svg width="16px" height="16px" viewBox="0 0 16 16" version="1.1" xmlns="http://www.w3.org/2000/svg" xmlns:xlink="http://www.w3.org/1999/xlink">
    <g id="页面编辑器" stroke="none" stroke-width="1" fill="none" fill-rule="evenodd">
        <g id="补充icon" transform="translate(-189.000000, -103.000000)">
            <g id="钉住" transform="translate(189.000000, 103.000000)">
                <rect id="矩形" x="0" y="0" width="16" height="16"></rect>
                <path d="M14.3327345,5.92784945 L10.0728676,1.66770847 C9.96049285,1.55532651 9.81354127,1.5 9.66658969,1.5 C9.51963811,1.5 9.37268654,1.55532651 9.2603118,1.66770847 L6.47514717,4.45478122 C6.26422844,4.43057587 6.05158086,4.42020215 5.83893328,4.42020215 C4.57342086,4.42020215 3.30790844,4.8368799 2.26887434,5.6702354 C2.00263265,5.88289666 1.98015771,6.28228488 2.2221956,6.52433834 L5.3635017,9.66584652 L1.63957581,13.3865541 C1.59462592,13.4315068 1.5652356,13.4920202 1.56004908,13.5559915 L1.50126844,14.1991621 C1.48570887,14.3616837 1.61537202,14.5 1.77615434,14.5 C1.78479855,14.5 1.79344276,14.5 1.80208697,14.498271 L2.44521623,14.4394866 C2.50918339,14.4342998 2.56969286,14.4049076 2.61464276,14.3599548 L6.33856865,10.6357893 L9.47987475,13.7772975 C9.59224948,13.8896795 9.73920106,13.945006 9.88615264,13.945006 C10.0538503,13.945006 10.2198192,13.8723899 10.3339227,13.7306158 C11.3072608,12.5151616 11.7118099,10.9936827 11.5475699,9.5223434 L14.3327345,6.7369996 C14.5557552,6.51569358 14.5557552,6.15261338 14.3327345,5.92784945 Z M10.6658604,8.64576406 L10.2422941,9.06935763 L10.3079901,9.66411757 C10.3719573,10.2467748 10.3252785,10.8259742 10.1662251,11.387884 C10.0728676,11.7163852 9.94493327,12.0293257 9.78242211,12.3249767 L3.67788065,6.21658465 C3.90090128,6.09382897 4.13256612,5.99009177 4.37460402,5.90710201 C4.84484907,5.7445804 5.33756907,5.66331959 5.83893328,5.66331959 C6.00490212,5.66331959 6.1725998,5.67196436 6.33856865,5.69098284 L6.93329033,5.75668307 L7.35685664,5.33308951 L9.66831854,3.02147892 L12.9790512,6.33242452 L10.6658604,8.64576406 Z M10.6658604,8.64576406 L10.2422941,9.06935763 L10.3079901,9.66411757 C10.3719573,10.2467748 10.3252785,10.8259742 10.1662251,11.387884 C10.0728676,11.7163852 9.94493327,12.0293257 9.78242211,12.3249767 L3.67788065,6.21658465 C3.90090128,6.09382897 4.13256612,5.99009177 4.37460402,5.90710201 C4.84484907,5.7445804 5.33756907,5.66331959 5.83893328,5.66331959 C6.00490212,5.66331959 6.1725998,5.67196436 6.33856865,5.69098284 L6.93329033,5.75668307 L7.35685664,5.33308951 L9.66831854,3.02147892 L12.9790512,6.33242452 L10.6658604,8.64576406 Z" id="形状" fill="currentColor" fill-rule="nonzero"></path>
            </g>
        </g>
    </g>
</svg>

<svg width="16" height="16" xmlns="http://www.w3.org/2000/svg"><g fill="none" fill-rule="evenodd"><path d="M0 0h16v16H0z"/><path d="m14.333 5.928-4.26-4.26a.572.572 0 0 0-.813 0L6.475 4.455A5.698 5.698 0 0 0 2.27 5.67a.574.574 0 0 0-.047.854l3.142 3.142-3.724 3.72a.273.273 0 0 0-.08.17l-.059.643a.276.276 0 0 0 .275.301c.009 0 .017 0 .026-.002l.643-.059a.273.273 0 0 0 .17-.079l3.724-3.724 3.14 3.141a.572.572 0 0 0 .855-.046 5.711 5.711 0 0 0 1.214-4.209l2.785-2.785a.573.573 0 0 0 0-.81Zm-3.667 2.718-.424.423.066.595a4.494 4.494 0 0 1-.526 2.661L3.678 6.217a4.471 4.471 0 0 1 2.66-.526l.595.066.424-.424 2.311-2.312 3.311 3.311-2.313 2.314Zm0 0-.424.423.066.595a4.494 4.494 0 0 1-.526 2.661L3.678 6.217a4.471 4.471 0 0 1 2.66-.526l.595.066.424-.424 2.311-2.312 3.311 3.311-2.313 2.314Z" fill="currentColor" fill-rule="nonzero"/></g></svg>
